symbols/web/cases/materialsymbolsrounded/cases_wght700grad200_40px.svg

<svg xmlns="http://www.w3.org/2000/svg" height="40" width="40"><path d="M4.958 38.875q-1.833 0-3.125-1.313Q.542 36.25.542 34.417V17.708q0-.875.625-1.541.625-.667 1.583-.667.917 0 1.562.667.646.666.646 1.541v16.709h23.625q.917 0 1.563.666.646.667.646 1.584 0 .958-.646 1.583t-1.563.625Zm6.5-6.458q-1.833 0-3.125-1.292Q7.042 29.833 7.042 28V12.25q0-1.875 1.27-3.146 1.271-1.271 3.146-1.271h4.625V4.917q0-1.792 1.292-3.105Q18.667.5 20.5.5H26q1.792 0 3.104 1.312 1.313 1.313 1.313 3.105v2.916h4.625q1.875 0 3.146 1.271 1.27 1.271 1.27 3.146V28q0 1.833-1.291 3.125-1.292 1.292-3.125 1.292ZM20.5 7.833H26V4.917h-5.5ZM11.458 28h23.584V12.25H11.458V28Zm0 0V12.25 28Z"/></svg>

<svg xmlns="http://www.w3.org/2000/svg" height="40" width="40"><path d="M4.958 38.875Q3.125 38.875 1.833 37.562Q0.542 36.25 0.542 34.417V17.708Q0.542 16.833 1.167 16.167Q1.792 15.5 2.75 15.5Q3.667 15.5 4.312 16.167Q4.958 16.833 4.958 17.708V34.417Q4.958 34.417 4.958 34.417Q4.958 34.417 4.958 34.417H28.583Q29.5 34.417 30.146 35.083Q30.792 35.75 30.792 36.667Q30.792 37.625 30.146 38.25Q29.5 38.875 28.583 38.875ZM11.458 32.417Q9.625 32.417 8.333 31.125Q7.042 29.833 7.042 28V12.25Q7.042 10.375 8.312 9.104Q9.583 7.833 11.458 7.833H16.083V4.917Q16.083 3.125 17.375 1.812Q18.667 0.5 20.5 0.5H26Q27.792 0.5 29.104 1.812Q30.417 3.125 30.417 4.917V7.833H35.042Q36.917 7.833 38.188 9.104Q39.458 10.375 39.458 12.25V28Q39.458 29.833 38.167 31.125Q36.875 32.417 35.042 32.417ZM20.5 7.833H26V4.917Q26 4.917 26 4.917Q26 4.917 26 4.917H20.5Q20.5 4.917 20.5 4.917Q20.5 4.917 20.5 4.917ZM11.458 28H35.042Q35.042 28 35.042 28Q35.042 28 35.042 28V12.25Q35.042 12.25 35.042 12.25Q35.042 12.25 35.042 12.25H11.458Q11.458 12.25 11.458 12.25Q11.458 12.25 11.458 12.25V28Q11.458 28 11.458 28Q11.458 28 11.458 28ZM11.458 28Q11.458 28 11.458 28Q11.458 28 11.458 28V12.25Q11.458 12.25 11.458 12.25Q11.458 12.25 11.458 12.25Q11.458 12.25 11.458 12.25Q11.458 12.25 11.458 12.25V28Q11.458 28 11.458 28Q11.458 28 11.458 28Z"/></svg>
